X:552
T:BAdd552- Down/Within the North Country
S:Sing sheet, Farmer's Daughter of Merry Wakefield
Q:1/4=120
L:1/4
M:C|
K:G mixolydian
G|dB(c/d/) (e/d/)|d2g2|dc/ d/ (e/d/) (c/B/)|A2d2|\
BA/G/AG/^F/|E/^F/Gcd|Bgc/ B/ A/G/|G2zG|dB(c/d/) (e/d/)|\
d2g2|d(c/d/) (e/d/) (c/B/)|A2d2|B(A/G/)AG/^F/|\
E/^F/Gcd|B(A/G/) (^F/G/) (A/G/)|G2z|]

